X:1
T:Title
%%score { ( 1 2 ) | ( 3 4 ) }
L:1/8
Q:1/4=62
M:6/8
K:Eb
V:1 treble nm="Grand Piano"
V:2 treble 
V:3 treble 
V:4 treble 
V:1
 z z/ F/G A2 F | A2 G G3 | z z/ F/G A>Bc | z3 B3[K:bass] | B2 [EB] [Ee]2 [A,EA] | %5
 [B,=EA]2 [B,EG] [=A,_Ec]3 | z3 .B3 | [CA]6 |] %8
V:2
 .E3 z3 | x6 | .E3 z3 | c2 B z2[K:bass] B,, | x6 | x6 | [A,DF]2 [A,DA] z z/ F,/B | x6 |] %8
V:3
 [A,C]2 [A,CE] [A,CE]2 [A,CE] | [B,_DE]2 [B,DE] [B,DE]3 | C2 [CE][K:bass] [A,CE]2 [A,CE] | %3
 [F,A,D]2 [F,A,D] .[F,A,D]3 | [E,G,E]2 [_D,G,] z z/[K:treble] c/[K:bass]C, | C,2 C, F,,3 | %6
 z z/ G/B,, [E,G,_D]2 [E,G,D] | [A,,A,]6 |] %8
V:4
 x6 | x6 | x3[K:bass] x3 | x6 | z3 .[C,A,]3[K:treble][K:bass] | x6 | .B,,3 z3 | x6 |] %8

